X:1
T:Aug. Halter
T:Rev. J. G. Small
T:I've Found a Friend
%%score { ( 1 2 ) | ( 3 4 5 ) }
L:1/8
M:4/4
K:G
V:1 treble 
V:2 treble 
V:3 bass 
V:4 bass 
V:5 bass 
V:1
 z{/x} D GA | B2 B2 A2 Bc | d4 z BGE | D2 GB A4 | G4 z DGA | B2 B2 A2 Bc | d4 z BGE | D2 GB A4 | %8
w: I’ve found a|Friend, O such a *|Friend! He loved me|ere I * knew|Him; He drew me|with the cords of *|love, And thus He|bound me * to|
w: I’ve found a|Friend, O such a *|Friend! He bled, He|died to * save|me; And not a\-|lone the gift of *|love, But His own|life He * gave|
w: I’ve found a|Friend, O such a *|Friend, So kind, and|true, and * ten\-|der, So wise a|Coun\- se\- lor and *|Guide, So might\- y|a De\- * fen\-|
 G4 z"^Chorus" DcB | A3 D B2 A2 | G6 G2 | e3 c G2 A2 | %12
w: Him. * * *||||
w: me. * * *||||
w: der. * * *||||
 B4[Q:1/4=48]"^Largo" !fermata!c[Q:1/4=120]"^Allegretto"cBA | G2 F2 E2 G2 | D4 z GGG | %15
w: |||
w: |||
w: |||
 G3 G (G2 F2) | G4- G2 z2 |] %17
w: ||
w: ||
w: ||
V:2
 z B, B,B, | G2 D2 D2 D2 | D4 z DDC | B,2 B,D C4 | B,4 z B,DD | G2 D2 D2 D2 | D4 z DDC | %7
w: |||||||
 B,2 B,D C4 | B,4 z DDD | D3 D D2 F2 | E6 =F2 | (E G2) E E2 E2 | ^D4 =DDDF | E2 ^D2 E2 C2 | %14
w: |* I love to|sing of such a|Friend, Whose|love * no pow'r can|sev\- er; My heart, my|strength, my life, my|
 B,4 z DE_E | D3 D D4 | D4- D2 z2 |] %17
w: all, Are His and|His for\- ev\-|er. *|
V:3
 z4 | z8 | z8 | z8 | z8 | z2 G,2 F,2 G,F, | [G,B,]4 z G,G,G, | G,2 G,2 F,4 | G,4 z B,A,G, | %9
 F,3 F, G,2 C2 | B,6 B,2 | C3 G, C2 G,E, | F,4 F,F,G,C | B,2 A,2 G,2 G,2 | G,4 z G,G,A, | %15
 B,3 B, (A,2 C2) | [G,B,-]4 [G,B,]2 z2 |] %17
V:4
 z G, B,C | D2 G,2 F,2 G,F, | [G,B,]4 z G,G,G, | G,2 G,2 F,4 | G,4 z G,B,C | D2 G,2 z4 | x8 | x8 | %8
 x8 | x8 | x8 | x8 | x8 | x8 | x8 | x8 | x8 |] %17
V:5
 z G,, G,G, | G,2 G,2 D,C,B,,A,, | G,,4 z G,,B,,C, | D,2 D,2 D,4 | G,,4 z G,,G,G, | %5
 G,2 G,2 D,C,B,,A,, | G,,4 z G,,B,,C, | D,2 D,2 D,4 | G,,4 z G,D,D, | D,3 D, D,2 ^D,2 | E,6 D,2 | %11
 C,3 C, C,2 C,2 | B,,4 !fermata!A,,D,D,^D, | E,2 B,,2 C,2 E,2 | G,,4 z B,,C,C, | D,3 D, D,4 | %16
 G,,4- G,,2 z2 |] %17

